assets/World.svg

<?xml version="1.0" encoding="UTF-8"?>
<svg width="105px" height="105px" viewBox="0 0 105 105" version="1.1" xmlns="http://www.w3.org/2000/svg" xmlns:xlink="http://www.w3.org/1999/xlink">
    <!-- Generator: Sketch 42 (36781) - http://www.bohemiancoding.com/sketch -->
    <title>World</title>
    <desc>Created with Sketch.</desc>
    <defs></defs>
    <g id="Page-1" stroke="none" stroke-width="1" fill="none" fill-rule="evenodd">
        <g id="Artboard-Copy-5" transform="translate(-192.000000, -542.000000)" fill-rule="nonzero" fill="#33373B">
            <g id="server" transform="translate(190.000000, 35.000000)">
                <g id="Group-8" transform="translate(0.000000, 45.000000)">
                    <g id="Group-2-Copy-2" transform="translate(2.000000, 445.000000)">
                        <g id="Path-2" transform="translate(0.000000, 17.000000)">
                            <g id="world-grid">
                                <g id="Layer_1">
                                    <path d="M52.4999974,0 C23.50507,0 7.10542736e-15,23.5050695 7.10542736e-15,52.5 C7.10542736e-15,81.4949305 23.50507,105 52.4999974,105 C81.4947635,105 104.999997,81.4949289 104.999997,52.5 C104.999997,23.5050711 81.4947635,0 52.4999974,0 Z M98.2752399,34.4498424 L84.666584,34.4498424 C82.0417428,20.7283132 76.2857742,12.1097809 71.7750443,7.21645329 C83.8424975,12.3726094 93.4353948,22.2201331 98.2752399,34.4498424 Z M82.8947059,50.154397 C82.8947059,56.5503742 82.3108077,62.2267725 81.3607192,67.265625 L54.1406224,67.265625 L54.1406224,37.7310924 L81.9700519,37.7310924 C82.5513214,41.4923903 82.8947059,45.6162643 82.8947059,50.154397 Z M63.9635379,100.356703 C60.7958169,101.115657 57.5111247,101.565843 54.1406224,101.677081 L54.1406224,70.546875 L80.6755963,70.546875 C75.8802117,91.1142433 64.8988563,99.6618979 63.9635379,100.356703 Z M42.7458283,100.406577 C42.6985766,100.372944 37.9442101,97.0050698 33.2530073,89.1753512 C30.7015063,84.9166193 27.8689679,78.7691948 25.9628908,70.546875 L50.8593755,70.546875 L50.8593755,101.677081 C48.2279756,101.590288 45.6482583,101.300063 43.1359699,100.814111 C43.0304767,100.66186 42.9067746,100.518635 42.7458283,100.406577 Z M23.7449297,50.154397 C23.7449297,45.6183984 24.0515627,41.4943586 24.5701646,37.7310923 L50.859374,37.7310923 L50.859374,67.265625 L25.2762894,67.265625 C24.3370311,62.2612256 23.7449297,56.5823677 23.7449297,50.154397 Z M40.2420701,4.82688281 C43.652439,3.9496403 47.2078358,3.44334359 50.8593755,3.32292171 L50.8593755,34.4498419 L25.093687,34.4498419 C28.7007648,14.5787575 38.44329,6.21714844 40.2420701,4.82688281 Z M54.1406224,34.4498424 L54.1406224,3.32292171 C57.518178,3.43415609 60.8096044,3.88598421 63.9835526,4.64772656 C63.9863375,4.64953141 63.9878146,4.65264844 63.9907749,4.6542889 C64.1467926,4.74682048 76.9339845,12.6134531 81.3822171,34.4498424 L54.1406224,34.4498424 Z M33.3749069,7.14918783 C29.3519292,12.0195469 24.1754292,20.6566174 21.8212975,34.4498424 L6.72459375,34.4498424 C11.5846169,22.168945 21.2362493,12.2876253 33.3749069,7.14918783 Z M5.54810173,37.7310924 L21.3233678,37.7310924 C20.8333127,41.5115851 20.5517824,45.6425156 20.5517824,50.1543971 C20.5517824,56.5180555 21.0974536,62.1955991 21.9979922,67.2656252 L5.54711719,67.2656252 C4.07728125,62.6019816 3.28125016,57.6427059 3.28125016,52.5000002 C3.28125016,47.3561489 4.07760938,42.3955558 5.54810173,37.7310924 Z M6.72344531,70.546875 L22.6498133,70.546875 C25.9107186,85.3991237 32.2712572,94.4112396 36.5708444,99.0584797 C22.9416794,94.3822002 12.0015003,83.8869604 6.72344531,70.546875 Z M70.8950133,98.1389076 C75.1501341,93.2675636 80.9330079,84.4749578 83.9912993,70.546875 L98.276385,70.546875 C93.3205516,83.072556 83.3740998,93.0905359 70.8950133,98.1389076 Z M99.4527117,67.265625 L84.6429581,67.265625 C85.5436672,62.1955991 86.0894949,56.5180555 86.0894949,50.154397 C86.0894949,45.6428441 85.7741673,41.5115851 85.2247221,37.7310923 L99.4517291,37.7310923 C100.922223,42.3955558 101.718747,47.3561489 101.718747,52.5 C101.718747,57.6427058 100.922549,62.6019814 99.4527117,67.265625 Z" id="World"></path>
                                </g>
                            </g>
                        </g>
                    </g>
                </g>
            </g>
        </g>
    </g>
</svg>

<svg id="Layer_1" data-name="Layer 1" xmlns="http://www.w3.org/2000/svg" viewBox="0 0 105 105"><defs><style>.cls-1{fill:#33373b;}</style></defs><title>World</title><g id="Layer_1-2" data-name="Layer 1"><path id="World" class="cls-1" d="M52.5,0A52.5,52.5,0,1,0,105,52.5,52.5,52.5,0,0,0,52.5,0ZM98.28,34.45H84.67C82,20.73,76.29,12.11,71.78,7.22A49.49,49.49,0,0,1,98.28,34.45ZM82.89,50.15a92.08,92.08,0,0,1-1.53,17.11H54.14V37.73H82A81.13,81.13,0,0,1,82.89,50.15ZM64,100.36a49.07,49.07,0,0,1-9.82,1.32V70.55H80.68C75.88,91.11,64.9,99.66,64,100.36Zm-21.22,0s-4.8-3.4-9.49-11.23A64.51,64.51,0,0,1,26,70.55h24.9v31.13a49.19,49.19,0,0,1-7.72-.86A1.58,1.58,0,0,0,42.75,100.41Zm-19-50.25a90.79,90.79,0,0,1,.83-12.42H50.86V67.27H25.28A92.49,92.49,0,0,1,23.74,50.15ZM40.24,4.83a49.08,49.08,0,0,1,10.62-1.5V34.45H25.09C28.7,14.58,38.44,6.22,40.24,4.83Zm13.9,29.62V3.32A49.06,49.06,0,0,1,64,4.65h0c.16.09,12.94,8,17.39,29.8ZM33.37,7.15c-4,4.87-9.2,13.51-11.55,27.3H6.72A49.49,49.49,0,0,1,33.37,7.15ZM5.55,37.73H21.32a96.56,96.56,0,0,0-.77,12.42A97.6,97.6,0,0,0,22,67.27H5.55a49.24,49.24,0,0,1,0-29.53ZM6.72,70.55H22.65c3.26,14.85,9.62,23.86,13.92,28.51A49.45,49.45,0,0,1,6.72,70.55ZM70.9,98.14c4.26-4.87,10-13.66,13.1-27.59H98.28A49.47,49.47,0,0,1,70.9,98.14ZM99.45,67.27H84.64a97.58,97.58,0,0,0,1.45-17.11,86.28,86.28,0,0,0-.86-12.42H99.45a49.24,49.24,0,0,1,0,29.53Z"/></g></svg>
